X:1
T: Mac's Visit to Camp Namanu
C:Gordy Euler
R:Jig
Q: 180
K:D
M:6/8
L:1/16
|:F2E2D2 A2F2E2|D2F2G2 A2G2F2|G2E2F2 D2=C2E2|G2A2G2 E2A2G2|
F2E2D2 A2F2E2|D2F2A2 d2A2B2|G2F2G2 B2G2E2|=C2D2E2 D6:|
|:F2E2D2 d2A2d2|=c2A2G2 E2=C2E2|F2E2D2 d2A2d2|=c2B2A2 G4A2|
F2E2D2 d2A2d2|=c2A2G2 F2D2F2|G2E2=C2 A,2B,2C2|D2E2D2 D6:|
